X: 3336
T: HUGH DUNLOP
%R: hornpipe, reel
B: James Kerr "Merry Melodies" v.3 p.36 #336
Z: 2016 John Chambers <jc:trillian.mit.edu>
M: C
L: 1/8
K: D
uA2 |\
Adcd Adfd | eAfA gAfA |\
Aagf edcd | edcB A2(AB) |\
Adcd Adfd | eAfA gAfA |\
agfe dbag | f2d2 d2 :|
|: (fg) |\
agaf dafd | gfed dcBA |\
ceAe ceAe | ABcd efge |\
agaf dafd | gfed dcBA |\
FAdA Bgec | d2d2 d2 :|

%%sep 1 1 500
%%sep 1 1 500

